svgs/ticket_restaurant.svg

<svg xmlns="http://www.w3.org/2000/svg" viewBox="0 0 192 192"><path d="M86.403 175.611c-14.444-1.868-28.404-7.686-40.666-16.947-4.326-3.267-11.24-10.199-13.908-13.944-1.139-1.598-2.496-3.331-3.016-3.851-1.387-1.387-6.201-11.516-7.904-16.628-3.263-9.798-4.051-15.124-4.051-27.39 0-12.279.793-17.634 4.058-27.389 1.438-4.298 4.854-11.696 7.977-17.277 5.338-9.541 14.525-18.518 25.649-25.065 32.543-19.153 73.854-13.097 99.366 14.567 22.087 23.949 27.494 58.976 13.622 88.242-11.846 24.992-35.054 41.887-62.52 45.512-5.067.669-14.11.752-18.607.17Zm19.785-7.378c30.311-4.737 54.169-27.435 60.227-57.3 4.558-22.467-1.678-45.616-16.943-62.902-12.259-13.882-29.618-22.397-49.11-24.089-14.488-1.258-31.768 3.103-44.105 11.132l-2.95 1.92 25.072.116c16.413.076 25.049.262 25.006.538-.036.231-.479 3.265-.984 6.742-.504 3.476-1.024 6.605-1.155 6.952-.131.348-.198 1.041-.15 1.54.048.5-.105 1.027-.34 1.173-.236.145-.317.555-.18.911.136.356.043 1.061-.207 1.567-.251.505-.516 1.299-.589 1.762-.131.831-.5.844-25.515.951l-25.382.109v23.169h45.413l.184 1.255c.101.689.041 1.4-.134 1.58-.175.179-.535 2.317-.799 4.75-.265 2.434-.764 5.657-1.109 7.163a201.164 201.164 0 0 0-1.066 4.959l-.438 2.22-21.078-.113-21.079-.113.214 7.796c.239 8.694.677 10.619 2.951 12.965.916.944 2.222 1.644 4.136 2.214 2.625.781 4.114.833 24.032.839 11.679.003 21.473.158 21.764.343.576.366.277 4.129-.359 4.522-.19.117-.238.491-.107.831.13.34.091.95-.088 1.356-.178.406-.372 1.212-.431 1.791a34.91 34.91 0 0 1-.339 2.318c-.128.695-.571 3.16-.984 5.477-.413 2.318-.904 4.451-1.091 4.741-.266.412-6.018.53-26.336.544l-25.995.017 1.896 1.718c5.654 5.121 15.752 10.856 23.808 13.519 11.58 3.829 22.823 4.817 34.34 3.017Z"/></svg>

<svg
    xmlns="http://www.w3.org/2000/svg"
    viewBox="0 0 192 192"
    id="vector">
    <path
        id="path"
        d="M 86.403 175.611 C 71.959 173.743 57.999 167.925 45.737 158.664 C 41.411 155.397 34.497 148.465 31.829 144.72 C 30.69 143.122 29.333 141.389 28.813 140.869 C 27.426 139.482 22.612 129.353 20.909 124.241 C 17.646 114.443 16.858 109.117 16.858 96.851 C 16.858 84.572 17.651 79.217 20.916 69.462 C 22.354 65.164 25.77 57.766 28.893 52.185 C 34.231 42.644 43.418 33.667 54.542 27.12 C 87.085 7.967 128.396 14.023 153.908 41.687 C 175.995 65.636 181.402 100.663 167.53 129.929 C 155.684 154.921 132.476 171.816 105.01 175.441 C 99.943 176.11 90.9 176.193 86.403 175.611 Z M 106.188 168.233 C 136.499 163.496 160.357 140.798 166.415 110.933 C 170.973 88.466 164.737 65.317 149.472 48.031 C 137.213 34.149 119.854 25.634 100.362 23.942 C 85.874 22.684 68.594 27.045 56.257 35.074 L 53.307 36.994 L 78.379 37.11 C 94.792 37.186 103.428 37.372 103.385 37.648 C 103.349 37.879 102.906 40.913 102.401 44.39 C 101.897 47.866 101.377 50.995 101.246 51.342 C 101.115 51.69 101.048 52.383 101.096 52.882 C 101.144 53.382 100.991 53.909 100.756 54.055 C 100.52 54.2 100.439 54.61 100.576 54.966 C 100.712 55.322 100.619 56.027 100.369 56.533 C 100.118 57.038 99.853 57.832 99.78 58.295 C 99.649 59.126 99.28 59.139 74.265 59.246 L 48.883 59.355 L 48.883 82.524 L 94.296 82.524 L 94.48 83.779 C 94.581 84.468 94.521 85.179 94.346 85.359 C 94.171 85.538 93.811 87.676 93.547 90.109 C 93.282 92.543 92.783 95.766 92.438 97.272 C 92.092 98.779 91.613 101.01 91.372 102.231 L 90.934 104.451 L 69.856 104.338 L 48.777 104.225 L 48.991 112.021 C 49.23 120.715 49.668 122.64 51.942 124.986 C 52.858 125.93 54.164 126.63 56.078 127.2 C 58.703 127.981 60.192 128.033 80.11 128.039 C 91.789 128.042 101.583 128.197 101.874 128.382 C 102.45 128.748 102.151 132.511 101.515 132.904 C 101.325 133.021 101.277 133.395 101.408 133.735 C 101.538 134.075 101.499 134.685 101.32 135.091 C 101.142 135.497 100.948 136.303 100.889 136.882 C 100.831 137.461 100.678 138.504 100.55 139.2 C 100.422 139.895 99.979 142.36 99.566 144.677 C 99.153 146.995 98.662 149.128 98.475 149.418 C 98.209 149.83 92.457 149.948 72.139 149.962 L 46.144 149.979 L 48.04 151.697 C 53.694 156.818 63.792 162.553 71.848 165.216 C 83.428 169.045 94.671 170.033 106.188 168.233 Z"
        fill="#000000"
        stroke-width="12"/>
</svg>
